T: Ridée Six Temps
M: 3/2
L: 1/8
K: Bmin
|: BffB ffef gfed | cBcd efed cedc :|B2 fB cd | B2 gB cd | B2 AB cd | ed cd dc |B2 fB cd | B2 gB cd | B2 AB cd | ed cd dB |||: BffB f2 ef gfed | cBcd ef e2 cedc :|B2 fB cd | B2 gB cd | B2 AB cd | ed ce dc  |cB fB cd | B2 gB cd | B2 AB cd | ed ce dc ||Bz B2 cd | Bz B2 cd | Bz B2 cd | ed ce dc :| ~ festourobinB2 fB cd | B2 gB cd | B2 AB cd | ed cd dc | ~ JeffreyB2 fB cd | B2 gB cd | B2 AB cd | ed ce dc | ~ Hetty
